X: 27
T: Star Of Munster, The
Z: Sean Perry
S: https://thesession.org/tunes/197#setting50776
R: reel
M: 4/4
L: 1/8
K: Gdor
A |: BAGB AGFA | FGGG FDCF | DGGA BABc | dg g/g/g fdcA
{c}B2 GB AGFD | FG G/G/G FDCF | DGGA {c}BABd |1 cBAB G3 A :|2 cBAB GABc ||
|: dg{a}gf gfdf | gf af gfde | {g}fefg fdcd | fdgd fdcd |
dg{a}gf gfdf | gf af gfde | f2 f/f/f g2 g/g/g | a2 a/a/a gfdc :|

